static/img/kroki/139508c7c9b06eb666ee97f20cf92dcd.svg

<?xml version="1.0" encoding="us-ascii" standalone="no"?><svg xmlns="http://www.w3.org/2000/svg" xmlns:xlink="http://www.w3.org/1999/xlink" contentStyleType="text/css" height="645px" preserveAspectRatio="none" style="width:726px;height:645px;" version="1.1" viewBox="0 0 726 645" width="726px" zoomAndPan="magnify"><defs/><g><!--class aws_cloudfront_function--><g id="elem_aws_cloudfront_function"><rect codeLine="23" fill="#3D176E" height="39.7891" id="aws_cloudfront_function" rx="2.5" ry="2.5" style="stroke:#000D19;stroke-width:0.5;" width="247" x="7" y="599.55"/><ellipse cx="22" cy="619.4445" fill="#ADD1B2" rx="11" ry="11" style="stroke:#181818;stroke-width:1.0;"/><path d="M24.9688,625.0852 Q24.3906,625.382 23.75,625.5227 Q23.1094,625.6789 22.4063,625.6789 Q19.9063,625.6789 18.5781,624.0383 Q17.2656,622.382 17.2656,619.257 Q17.2656,616.132 18.5781,614.4758 Q19.9063,612.8195 22.4063,612.8195 Q23.1094,612.8195 23.75,612.9758 Q24.4063,613.132 24.9688,613.4289 L24.9688,616.1477 Q24.3438,615.5695 23.75,615.3039 Q23.1563,615.0227 22.5313,615.0227 Q21.1875,615.0227 20.5,616.1008 Q19.8125,617.1633 19.8125,619.257 Q19.8125,621.3508 20.5,622.4289 Q21.1875,623.4914 22.5313,623.4914 Q23.1563,623.4914 23.75,623.2258 Q24.3438,622.9445 24.9688,622.3664 L24.9688,625.0852 Z " fill="#000000"/><text fill="#D9B8FF" font-family="Helvetica" font-size="17" lengthAdjust="spacing" textLength="205" x="41" y="625.3298">aws_cloudfront_function</text></g><!--class aws_lambda_function--><g id="elem_aws_lambda_function"><rect codeLine="26" fill="#3D176E" height="39.7891" id="aws_lambda_function" rx="2.5" ry="2.5" style="stroke:#000D19;stroke-width:0.5;" width="224" x="289.5" y="599.55"/><ellipse cx="304.5" cy="619.4445" fill="#ADD1B2" rx="11" ry="11" style="stroke:#181818;stroke-width:1.0;"/><path d="M307.4688,625.0852 Q306.8906,625.382 306.25,625.5227 Q305.6094,625.6789 304.9063,625.6789 Q302.4063,625.6789 301.0781,624.0383 Q299.7656,622.382 299.7656,619.257 Q299.7656,616.132 301.0781,614.4758 Q302.4063,612.8195 304.9063,612.8195 Q305.6094,612.8195 306.25,612.9758 Q306.9063,613.132 307.4688,613.4289 L307.4688,616.1477 Q306.8438,615.5695 306.25,615.3039 Q305.6563,615.0227 305.0313,615.0227 Q303.6875,615.0227 303,616.1008 Q302.3125,617.1633 302.3125,619.257 Q302.3125,621.3508 303,622.4289 Q303.6875,623.4914 305.0313,623.4914 Q305.6563,623.4914 306.25,623.2258 Q306.8438,622.9445 307.4688,622.3664 L307.4688,625.0852 Z " fill="#000000"/><text fill="#D9B8FF" font-family="Helvetica" font-size="17" lengthAdjust="spacing" textLength="182" x="323.5" y="625.3298">aws_lambda_function</text></g><!--class azure_web_app--><g id="elem_azure_web_app"><rect codeLine="29" fill="#3D176E" height="39.7891" id="azure_web_app" rx="2.5" ry="2.5" style="stroke:#000D19;stroke-width:0.5;" width="171" x="548" y="599.55"/><ellipse cx="563" cy="619.4445" fill="#ADD1B2" rx="11" ry="11" style="stroke:#181818;stroke-width:1.0;"/><path d="M565.9688,625.0852 Q565.3906,625.382 564.75,625.5227 Q564.1094,625.6789 563.4063,625.6789 Q560.9063,625.6789 559.5781,624.0383 Q558.2656,622.382 558.2656,619.257 Q558.2656,616.132 559.5781,614.4758 Q560.9063,612.8195 563.4063,612.8195 Q564.1094,612.8195 564.75,612.9758 Q565.4063,613.132 565.9688,613.4289 L565.9688,616.1477 Q565.3438,615.5695 564.75,615.3039 Q564.1563,615.0227 563.5313,615.0227 Q562.1875,615.0227 561.5,616.1008 Q560.8125,617.1633 560.8125,619.257 Q560.8125,621.3508 561.5,622.4289 Q562.1875,623.4914 563.5313,623.4914 Q564.1563,623.4914 564.75,623.2258 Q565.3438,622.9445 565.9688,622.3664 L565.9688,625.0852 Z " fill="#000000"/><text fill="#D9B8FF" font-family="Helvetica" font-size="17" lengthAdjust="spacing" textLength="129" x="582" y="625.3298">azure_web_app</text></g><!--class resource--><g id="elem_resource"><rect codeLine="32" fill="#3D176E" height="310.7578" id="resource" rx="2.5" ry="2.5" style="stroke:#000D19;stroke-width:0.5;" width="227" x="288" y="7"/><ellipse cx="356.75" cy="26.8945" fill="#ADD1B2" rx="11" ry="11" style="stroke:#181818;stroke-width:1.0;"/><path d="M359.7188,32.5352 Q359.1406,32.832 358.5,32.9727 Q357.8594,33.1289 357.1563,33.1289 Q354.6563,33.1289 353.3281,31.4883 Q352.0156,29.832 352.0156,26.707 Q352.0156,23.582 353.3281,21.9258 Q354.6563,20.2695 357.1563,20.2695 Q357.8594,20.2695 358.5,20.4258 Q359.1563,20.582 359.7188,20.8789 L359.7188,23.5977 Q359.0938,23.0195 358.5,22.7539 Q357.9063,22.4727 357.2813,22.4727 Q355.9375,22.4727 355.25,23.5508 Q354.5625,24.6133 354.5625,26.707 Q354.5625,28.8008 355.25,29.8789 Q355.9375,30.9414 357.2813,30.9414 Q357.9063,30.9414 358.5,30.6758 Q359.0938,30.3945 359.7188,29.8164 L359.7188,32.5352 Z " fill="#000000"/><text fill="#D9B8FF" font-family="Helvetica" font-size="17" lengthAdjust="spacing" textLength="71" x="382.25" y="32.7798">resource</text><line style="stroke:#000D19;stroke-width:0.5;" x1="289" x2="514" y1="46.7891" y2="46.7891"/><text fill="#D9B8FF" font-family="sans-serif" font-size="14" font-weight="bold" lengthAdjust="spacing" textLength="29" x="299" y="68.7842">age</text><text fill="#D9B8FF" font-family="sans-serif" font-size="14" lengthAdjust="spacing" textLength="66" x="328" y="68.7842">: duration</text><text fill="#D9B8FF" font-family="sans-serif" font-size="14" font-weight="bold" lengthAdjust="spacing" textLength="43" x="299" y="95.0811">atime</text><text fill="#D9B8FF" font-family="sans-serif" font-size="14" lengthAdjust="spacing" textLength="70" x="342" y="95.0811">: datetime</text><text fill="#D9B8FF" font-family="sans-serif" font-size="14" font-weight="bold" lengthAdjust="spacing" textLength="43" x="299" y="121.3779">ctime</text><text fill="#D9B8FF" font-family="sans-serif" font-size="14" lengthAdjust="spacing" textLength="70" x="342" y="121.3779">: datetime</text><text fill="#D9B8FF" font-family="sans-serif" font-size="14" font-weight="bold" lengthAdjust="spacing" textLength="14" x="299" y="147.6748">id</text><text fill="#D9B8FF" font-family="sans-serif" font-size="14" lengthAdjust="spacing" textLength="48" x="313" y="147.6748">: string</text><text fill="#D9B8FF" font-family="sans-serif" font-size="14" font-weight="bold" lengthAdjust="spacing" textLength="33" x="299" y="173.9717">kind</text><text fill="#D9B8FF" font-family="sans-serif" font-size="14" lengthAdjust="spacing" textLength="48" x="332" y="173.9717">: string</text><text fill="#D9B8FF" font-family="sans-serif" font-size="14" font-weight="bold" lengthAdjust="spacing" textLength="90" x="299" y="200.2686">last_access</text><text fill="#D9B8FF" font-family="sans-serif" font-size="14" lengthAdjust="spacing" textLength="66" x="389" y="200.2686">: duration</text><text fill="#D9B8FF" font-family="sans-serif" font-size="14" font-weight="bold" lengthAdjust="spacing" textLength="90" x="299" y="226.5654">last_update</text><text fill="#D9B8FF" font-family="sans-serif" font-size="14" lengthAdjust="spacing" textLength="66" x="389" y="226.5654">: duration</text><text fill="#D9B8FF" font-family="sans-serif" font-size="14" font-weight="bold" lengthAdjust="spacing" textLength="48" x="299" y="252.8623">mtime</text><text fill="#D9B8FF" font-family="sans-serif" font-size="14" lengthAdjust="spacing" textLength="70" x="347" y="252.8623">: datetime</text><text fill="#D9B8FF" font-family="sans-serif" font-size="14" font-weight="bold" lengthAdjust="spacing" textLength="43" x="299" y="279.1592">name</text><text fill="#D9B8FF" font-family="sans-serif" font-size="14" lengthAdjust="spacing" textLength="48" x="342" y="279.1592">: string</text><text fill="#D9B8FF" font-family="sans-serif" font-size="14" font-weight="bold" lengthAdjust="spacing" textLength="34" x="299" y="305.4561">tags</text><text fill="#D9B8FF" font-family="sans-serif" font-size="14" lengthAdjust="spacing" textLength="171" x="333" y="305.4561">: dictionary[string, string]</text></g><!--class serverless_function--><g id="elem_serverless_function"><rect codeLine="44" fill="#3D176E" height="39.7891" id="serverless_function" rx="2.5" ry="2.5" style="stroke:#000D19;stroke-width:0.5;" width="203" x="300" y="438.76"/><ellipse cx="315" cy="458.6545" fill="#ADD1B2" rx="11" ry="11" style="stroke:#181818;stroke-width:1.0;"/><path d="M317.9688,464.2952 Q317.3906,464.592 316.75,464.7327 Q316.1094,464.8889 315.4063,464.8889 Q312.9063,464.8889 311.5781,463.2483 Q310.2656,461.592 310.2656,458.467 Q310.2656,455.342 311.5781,453.6858 Q312.9063,452.0295 315.4063,452.0295 Q316.1094,452.0295 316.75,452.1858 Q317.4063,452.342 317.9688,452.6389 L317.9688,455.3577 Q317.3438,454.7795 316.75,454.5139 Q316.1563,454.2327 315.5313,454.2327 Q314.1875,454.2327 313.5,455.3108 Q312.8125,456.3733 312.8125,458.467 Q312.8125,460.5608 313.5,461.6389 Q314.1875,462.7014 315.5313,462.7014 Q316.1563,462.7014 316.75,462.4358 Q317.3438,462.1545 317.9688,461.5764 L317.9688,464.2952 Z " fill="#000000"/><text fill="#D9B8FF" font-family="Helvetica" font-size="17" lengthAdjust="spacing" textLength="161" x="334" y="464.5398">serverless_function</text></g><!--reverse link serverless_function to aws_cloudfront_function--><g id="link_serverless_function_aws_cloudfront_function"><path codeLine="47" d="M353.0096,488.0698 C300.8196,518.6498 215.28,568.77 163.23,599.27 " fill="none" id="serverless_function-backto-aws_cloudfront_function" style="stroke:#FFAF37;stroke-width:2.0;"/><polygon fill="none" points="368.54,478.97,349.9763,482.893,356.0429,493.2466,368.54,478.97" style="stroke:#FFAF37;stroke-width:2.0;"/></g><!--reverse link serverless_function to aws_lambda_function--><g id="link_serverless_function_aws_lambda_function"><path codeLine="48" d="M401.5,496.81 C401.5,527.33 401.5,568.66 401.5,599.22 " fill="none" id="serverless_function-backto-aws_lambda_function" style="stroke:#FFAF37;stroke-width:2.0;"/><polygon fill="none" points="401.5,478.81,395.5,496.81,407.5,496.81,401.5,478.81" style="stroke:#FFAF37;stroke-width:2.0;"/></g><!--reverse link serverless_function to azure_web_app--><g id="link_serverless_function_azure_web_app"><path codeLine="49" d="M444.3349,488.9753 C488.9349,519.4953 560.76,568.66 605.42,599.22 " fill="none" id="serverless_function-backto-azure_web_app" style="stroke:#FFAF37;stroke-width:2.0;"/><polygon fill="none" points="429.48,478.81,440.9465,493.9269,447.7233,484.0236,429.48,478.81" style="stroke:#FFAF37;stroke-width:2.0;"/></g><!--reverse link resource to serverless_function--><g id="link_resource_serverless_function"><path codeLine="50" d="M401.5,335.85 C401.5,384.14 401.5,413.37 401.5,438.68 " fill="none" id="resource-backto-serverless_function" style="stroke:#FFAF37;stroke-width:2.0;"/><polygon fill="none" points="401.5,317.85,395.5,335.85,407.5,335.85,401.5,317.85" style="stroke:#FFAF37;stroke-width:2.0;"/></g><!--SRC=[XPBDJiCm48JlUGfBt2egjLHGYhX09GIN2W4tXAADlKwj9dQqTgZApxlZD50P9srloSpdtTcrbqeWmx9o6rPYcI7PnAwKhe2WP3T4PZqtXI5s8YN8oJGsxunsHu45bCZkiNX7fpZ4nCjIyPL6QzbPODq2N-LaQYtQyev0Ms-XTW4rBy3Q6-T8PRN388oOPPTIncHSz6GYnjCBx6261D8lCXgDn7WM8qTR7PnxHpoh3sJZS6aBux0JizDYInrCsH11oCwWV_xUZ8yWXD8vEm-qfpOJQQH_-lCIX5atj8J2XcsiGqBZDXNEErFXx5B8QI_yi0zEUBCw1ckRyiBKGfAV8PMrvauPpJwJv3j02YWp0VtsHqsOhZ5BeQf2Wz2QcZXwRJ2070U3AoPgWgP0epXLjXeuRBwzndiq9Hh1-fUfS__hP_ml-5uk1SxzkuywR9swQcf5JjdJHqChxGexoDkAQZipqEQrzKv_cRVTg1Rf7Qdm4Q8LzHdNNyFXSD_YZvo8xk4G7LvBihkBrkmvblm0]--></g></svg>

<svg xmlns="http://www.w3.org/2000/svg" width="726" height="645" viewBox="0 0 726 645"><rect width="247" height="39.789" x="7" y="599.55" fill="#3D176E" rx="2.5" ry="2.5" style="stroke:#000d19;stroke-width:.5"/><circle cx="22" cy="619.444" r="11" fill="#ADD1B2" style="stroke:#181818;stroke-width:1"/><path d="M24.969 625.085q-.578.297-1.219.438-.64.156-1.344.156-2.5 0-3.828-1.64-1.312-1.657-1.312-4.782t1.312-4.781q1.328-1.657 3.828-1.657.703 0 1.344.157.656.156 1.219.453v2.719q-.625-.579-1.219-.844-.594-.281-1.219-.281-1.343 0-2.031 1.078-.687 1.062-.687 3.156t.687 3.172q.688 1.062 2.031 1.062.625 0 1.219-.265.594-.282 1.219-.86z"/><text x="41" y="625.33" fill="#D9B8FF" font-family="Helvetica" font-size="17" textLength="205">aws_cloudfront_function</text><rect width="224" height="39.789" x="289.5" y="599.55" fill="#3D176E" rx="2.5" ry="2.5" style="stroke:#000d19;stroke-width:.5"/><circle cx="304.5" cy="619.444" r="11" fill="#ADD1B2" style="stroke:#181818;stroke-width:1"/><path d="M307.469 625.085q-.578.297-1.219.438-.64.156-1.344.156-2.5 0-3.828-1.64-1.312-1.657-1.312-4.782t1.312-4.781q1.328-1.657 3.828-1.657.703 0 1.344.157.656.156 1.219.453v2.719q-.625-.579-1.219-.844-.594-.281-1.219-.281-1.344 0-2.031 1.078-.687 1.062-.687 3.156t.687 3.172q.688 1.062 2.031 1.062.625 0 1.219-.265.594-.282 1.219-.86z"/><text x="323.5" y="625.33" fill="#D9B8FF" font-family="Helvetica" font-size="17" textLength="182">aws_lambda_function</text><rect width="171" height="39.789" x="548" y="599.55" fill="#3D176E" rx="2.5" ry="2.5" style="stroke:#000d19;stroke-width:.5"/><circle cx="563" cy="619.444" r="11" fill="#ADD1B2" style="stroke:#181818;stroke-width:1"/><path d="M565.969 625.085q-.578.297-1.219.438-.64.156-1.344.156-2.5 0-3.828-1.64-1.312-1.657-1.312-4.782t1.312-4.781q1.328-1.657 3.828-1.657.703 0 1.344.157.656.156 1.219.453v2.719q-.625-.579-1.219-.844-.594-.281-1.219-.281-1.343 0-2.031 1.078-.687 1.062-.687 3.156t.687 3.172q.688 1.062 2.031 1.062.625 0 1.219-.265.594-.282 1.219-.86z"/><text x="582" y="625.33" fill="#D9B8FF" font-family="Helvetica" font-size="17" textLength="129">azure_web_app</text><rect width="227" height="310.758" x="288" y="7" fill="#3D176E" rx="2.5" ry="2.5" style="stroke:#000d19;stroke-width:.5"/><circle cx="356.75" cy="26.895" r="11" fill="#ADD1B2" style="stroke:#181818;stroke-width:1"/><path d="M359.719 32.535q-.578.297-1.219.438-.64.156-1.344.156-2.5 0-3.828-1.64-1.312-1.657-1.312-4.782t1.312-4.781q1.328-1.656 3.828-1.656.703 0 1.344.156.656.156 1.219.453v2.719q-.625-.578-1.219-.844-.594-.281-1.219-.281-1.344 0-2.031 1.078-.687 1.062-.687 3.156t.687 3.172q.688 1.062 2.031 1.062.625 0 1.219-.265.594-.281 1.219-.86z"/><text x="382.25" y="32.78" fill="#D9B8FF" font-family="Helvetica" font-size="17" textLength="71">resource</text><path d="M289 46.789h225" style="stroke:#000d19;stroke-width:.5"/><text x="299" y="68.784" fill="#D9B8FF" font-family="sans-serif" font-size="14" font-weight="bold" textLength="29">age</text><text x="328" y="68.784" fill="#D9B8FF" font-family="sans-serif" font-size="14" textLength="66">: duration</text><text x="299" y="95.081" fill="#D9B8FF" font-family="sans-serif" font-size="14" font-weight="bold" textLength="43">atime</text><text x="342" y="95.081" fill="#D9B8FF" font-family="sans-serif" font-size="14" textLength="70">: datetime</text><text x="299" y="121.378" fill="#D9B8FF" font-family="sans-serif" font-size="14" font-weight="bold" textLength="43">ctime</text><text x="342" y="121.378" fill="#D9B8FF" font-family="sans-serif" font-size="14" textLength="70">: datetime</text><text x="299" y="147.675" fill="#D9B8FF" font-family="sans-serif" font-size="14" font-weight="bold" textLength="14">id</text><text x="313" y="147.675" fill="#D9B8FF" font-family="sans-serif" font-size="14" textLength="48">: string</text><text x="299" y="173.972" fill="#D9B8FF" font-family="sans-serif" font-size="14" font-weight="bold" textLength="33">kind</text><text x="332" y="173.972" fill="#D9B8FF" font-family="sans-serif" font-size="14" textLength="48">: string</text><text x="299" y="200.269" fill="#D9B8FF" font-family="sans-serif" font-size="14" font-weight="bold" textLength="90">last_access</text><text x="389" y="200.269" fill="#D9B8FF" font-family="sans-serif" font-size="14" textLength="66">: duration</text><text x="299" y="226.565" fill="#D9B8FF" font-family="sans-serif" font-size="14" font-weight="bold" textLength="90">last_update</text><text x="389" y="226.565" fill="#D9B8FF" font-family="sans-serif" font-size="14" textLength="66">: duration</text><text x="299" y="252.862" fill="#D9B8FF" font-family="sans-serif" font-size="14" font-weight="bold" textLength="48">mtime</text><text x="347" y="252.862" fill="#D9B8FF" font-family="sans-serif" font-size="14" textLength="70">: datetime</text><text x="299" y="279.159" fill="#D9B8FF" font-family="sans-serif" font-size="14" font-weight="bold" textLength="43">name</text><text x="342" y="279.159" fill="#D9B8FF" font-family="sans-serif" font-size="14" textLength="48">: string</text><text x="299" y="305.456" fill="#D9B8FF" font-family="sans-serif" font-size="14" font-weight="bold" textLength="34">tags</text><text x="333" y="305.456" fill="#D9B8FF" font-family="sans-serif" font-size="14" textLength="171">: dictionary[string, string]</text><rect width="203" height="39.789" x="300" y="438.76" fill="#3D176E" rx="2.5" ry="2.5" style="stroke:#000d19;stroke-width:.5"/><circle cx="315" cy="458.654" r="11" fill="#ADD1B2" style="stroke:#181818;stroke-width:1"/><path d="M317.969 464.295q-.578.297-1.219.438-.64.156-1.344.156-2.5 0-3.828-1.64-1.312-1.657-1.312-4.782t1.312-4.781q1.328-1.656 3.828-1.656.703 0 1.344.156.656.156 1.219.453v2.719q-.625-.579-1.219-.844-.594-.281-1.219-.281-1.344 0-2.031 1.078-.687 1.062-.687 3.156t.687 3.172q.688 1.062 2.031 1.062.625 0 1.219-.265.594-.281 1.219-.86z"/><text x="334" y="464.54" fill="#D9B8FF" font-family="Helvetica" font-size="17" textLength="161">serverless_function</text><g fill="none"><path d="M353.01 488.07c-52.19 30.58-137.73 80.7-189.78 111.2" style="stroke:#ffaf37;stroke-width:2"/><path d="m368.54 478.97-18.564 3.923 6.067 10.354z" style="stroke:#ffaf37;stroke-width:2"/></g><path fill="none" d="M401.5 496.81v102.41m0-120.41-6 18h12zm42.835 10.165c44.6 30.52 116.425 79.685 161.085 110.245M429.48 478.81l11.466 15.117 6.777-9.903zM401.5 335.85v102.83m0-120.83-6 18h12z" style="stroke:#ffaf37;stroke-width:2"/></svg>
